X:64
T: Graf und Nonne (Die Nonne)
N: Q0155A
O: Osteuropa, Ungarn, Banat, Almaskamaras
N: Sehr viele Verzierungen (Vorschlaege) . Schlusston rhythmisch
N: korrigiert.
R: Ballade, Standesunterschied, vergebliche Werbung, Liebes - Lied
M: 2/4
L: 1/16
K: G
D2 | G2G2F2E2 | E2D2D2
F2 | G2G2A2D2 | B4z2
G2 | G3BB2d2 | d4c2
B2 | A2G2F2e2 | e4d2
c2 | B2B2d2c2 | B4z2
G2 | G3BB2d2 | d4c2
B2 | A2G2F2e2 | e4d2
c2 | B2B2d2c2 | B4z2

